!!!!SEGMENT: pl-kk--kk-i-7--066_asola-giovanni-matteo--sancti-mei.krn
!!!cenid: 16xx:905
!!!COM: Asola, Giovanni Matteo
!!!COM-rismID: pe20000387
!!!CDT: <=1532-1609/10/01
!!!CNT: Italian
!!!OTL: Sancti mei
!!!PDT:
!!!AGN: Sacred
!!!YEC: Copyright 2022 Narodowy Instytut Fryderyka Chopina (https://polishscores.org)
!!!YEM: License CC-BY-4.0 (https://creativecommons.org/licenses/by/4.0)
!!!SMS-siglum: PL-Kk
!!!SMS-shelfmark: Kk.I.7
!!!SMS-shelfwork: 066 W
!!!SMS-variant:
!!!SMS-altvar:
!!!NIFC-rismSourceID: 300258077
!!!NIFC-rismChildID: 300258143
!!!NIFC-islandoraID: pl-kk:1956
!!!URL-pdf-islandora: https://repozytorium.nifc.pl/islandora/object/pl-kk%3A1956/datastream/PDF/view
!!!URL-scan: https://polish.musicsources.pl/pl/lokalizacje/galeria/rekopisy/6140 @EN{Scan on Polish Music Sources Website} @PL{Skany w portalu Dziedzictwo Muzyki Polskiej w otwartym dostępie}
!!!IIIF: https://repozytorium.nifc.pl/islandora/object/pl-kk%3A1956/datastream/IIIF/view
!!!ONB-nifc: UWAGA: C (skan 0062, s. 6-7), A (0148, s. 6-7 ), T (0225, s.6-7 ), B (0312, s.6-7 ). Następny utwór: O rex gloriae
!!!AIN: 1 alto 1 bass 2 tenor
!!!key: g:dor
**kern	**text	**kern	**text	**kern	**text	**kern	**text
*part4	*	*part3	*	*part2	*	*part1	*
*staff4	*	*staff3	*	*staff2	*	*staff1	*
*I"BASSVS.	*	*I"TENOR.	*	*I"ALTVS.	*	*I"CANTVS.	*
*mI"Bass	*	*mI"Tenore II	*	*mI"Tenore I	*	*mI"Alto	*
*I'B	*	*I'T	*	*I'A	*	*I'S	*
*	*	*mI'T 2	*	*mI'T 1	*	*mI'A	*
*Ibass	*	*Itenor	*	*Itenor	*	*Ialto	*
*ICvox	*	*ICvox	*	*ICvox	*	*ICvox	*
*clefF4	*	*clefC4	*	*clefC4	*	*clefC3	*
*	*	*mclefGv2	*	*mclefGv2	*	*mclefG2	*
*k[b-]	*	*k[b-]	*	*k[b-]	*	*k[b-]	*
*g:dor	*	*g:dor	*	*g:dor	*	*g:dor	*
*M2/1	*	*M2/1	*	*M2/1	*	*M2/1	*
*met(C|)	*	*met(C|)	*	*met(C|)	*	*met(C|)	*
*mmet(c|)	*	*mmet(c|)	*	*mmet(c|)	*	*mmet(c|)	*
=1-	=1-	=1-	=1-	=1-	=1-	=1-	=1-
!LO:MO:mod=*null	!	!LO:MO:mod=*null	!	!LO:MO:mod=*null	!	!LO:MO:mod=*null	!
*all\right	*	*all\right	*	*all\right	*	*all\right	*
*xywh-#312:1160,1075,6022,1041	*	*xywh-#225:1081,1694,6148,1138	*	*xywh-#148:1265,3001,6144,1058	*	*xywh-#62:1073,2257,6248,1085	*
!LO:TX:t=P:problem=znaki [B- BB-]	!	!	!	!	!	!	!
!LO:TX:t=P:problem=kreska pseudotaktowa	!	!	!	!	!	!LO:TX:t=P:problem=kreska pseudotaktowa	!
00r	.	1G	San-	00r	.	1r	.
!	!	!LO:TX:t=P:problem=kreska pseudotaktowa	!	!	!	!	!
.	.	1B-	-cti	.	.	1d	San-
=2-	=2-	=2-	=2-	=2-	=2-	=2-	=2-
!	!	!	!	!	!	!LO:TX:t=P:problem=kreska pseudotaktowa	!
.	.	1A	me-	.	.	1f	-cti
!	!	!	!LO:MO:null:mod=-i	!	!	!	!
.	.	2.G/	.	.	.	1e	me-
.	.	4A/	.	.	.	.	.
=3-	=3-	=3-	=3-	=3-	=3-	=3-	=3-
*	*	*2\right	*	*	*	*2\right	*
!	!	!	!LO:MO:mod=.	!LO:TX:t=P:problem=kreska pseudotaktowa	!	!	!
1D	San-	2B-\	-i	0r	.	2d\	-i
*	*	*	*ij	*	*	*	*ij
!	!	!	!LO:MO:mod=san-	!	!	!	!LO:MO:mod=san-
.	.	1A	San-	.	.	1f	San-
1F	-cti	.	.	.	.	.	.
!	!	!	!	!	!	!LO:TX:t=P:problem=kreska pseudotaktowa	!
.	.	1d\	-cti	.	.	2d\	-cti
=4-	=4-	=4-	=4-	=4-	=4-	=4-	=4-
1E	me-	.	.	1G	San-	4e\	me-
.	.	.	.	.	.	4f\	.
!	!	!LO:TX:t=P:problem=kreska pseudotaktowa	!	!	!	!	!
.	.	2c\	me-	.	.	4g\	.
.	.	.	.	.	.	4e\	.
!LO:TX:t=P:problem=kreska pseudotaktowa	!	!	!	!	!	!	!
1D	-i	2d\	-i	1B-	-cti	2.f\	.
!	!	!	!LO:MO:mod=san-	!	!	!	!
.	.	1d\	San-	.	.	.	.
.	.	.	.	.	.	8e\L	.
!	!	!	!	!	!	!LO:TX:t=P:problem=kreska pseudotaktowa	!
.	.	.	.	.	.	8d\J	.
=5-	=5-	=5-	=5-	=5-	=5-	=5-	=5-
!LO:TX:t=P:problem=kreska pseudotaktowa	!	!	!	!LO:TX:t=P:problem=kreska pseudotaktowa	!	!	!
1r	.	.	.	1A	me-	2e\	.
!	!	!LO:TX:t=P:problem=kreska pseudotaktowa	!	!	!	!	!
.	.	2c\	-cti	.	.	2f\	.
*	*ij	*	*	*	*	*	*
!	!LO:MO:mod=san-	!	!	!	!	!	!
1GG	San-	2.B-\	me-	2G/	-i	1g	.
*	*	*	*	*	*ij	*	*
!	!	!	!	!	!LO:MO:mod=san-	!	!
.	.	.	.	1d\	San-	.	.
.	.	8A/L	.	.	.	.	.
!	!	!LO:TX:t=P:problem=kreska pseudotaktowa	!	!	!	!	!
.	.	8G/J	.	.	.	.	.
=6-	=6-	=6-	=6-	=6-	=6-	=6-	=6-
!LO:TX:t=P:problem=kreska pseudotaktowa	!	!	!	!	!	!LO:TX:t=P:problem=kreska pseudotaktowa	!
1BB-	-cti	2F/	.	.	.	1d	-i
*	*	*	*	*2\right	*	*	*Xij
!	!	!	!	!LO:TX:t=P:problem=kreska pseudotaktowa	!	!	!
.	.	1G	.	2B-\	-cti	.	.
1AA	me-	.	.	1.c	me-	1r	.
!	!	!LO:SIC:v:o=2F/	!	!	!	!	!
.	.	2F#i	.	.	.	.	.
=7-	=7-	=7-	=7-	=7-	=7-	=7-	=7-
!LO:TX:t=P:problem=kreska pseudotaktowa	!	!LO:TX:t=P:problem=kreska pseudotaktowa	!	!	!	!	!LO:MO:mod=san-
1GG	-i	1G	-i	.	.	1.d	San-
*	*Xij	*	*Xij	*	*	*	*
.	.	.	.	2B-\	.	.	.
!LO:TX:t=P:problem=kreska pseudotaktowa	!	!	!	!	!	!	!
1r	.	00r	.	1A	.	.	.
!	!	!	!	!	!	!LO:TX:t=P:problem=kreska pseudotaktowa	!
.	.	.	.	.	.	2c/	-cti
=8-	=8-	=8-	=8-	=8-	=8-	=8-	=8-
!	!LO:MO:mod=san-	!	!	!LO:TX:t=P:problem=kreska pseudotaktowa	!	!	!
1G	San-	.	.	1G	-i	2.B-/	me-
*	*	*	*	*	*Xij	*	*
.	.	.	.	.	.	4c/	.
!LO:TX:t=P:problem=kreska pseudotaktowa	!	!	!	!	!	!	!
1B-	-cti	.	.	2r	.	4d\	.
.	.	.	.	.	.	4e\	.
!	!	!	!	!	!LO:MO:mod=san-	!	!
.	.	.	.	1d\	San-	4f\	.
!	!	!	!	!	!	!LO:TX:t=P:problem=kreska pseudotaktowa	!
.	.	.	.	.	.	4d\	.
*custos:A	*	*	*	*	*	*	*
!LO:LB:g=original	!	!	!	!	!	!	!
=9-	=9-	=9-	=9-	=9-	=9-	=9-	=9-
*xywh-#312:1111,1670,6161,1041	*	*	*	*	*	*	*
1A	me-	.	.	.	.	2e\	.
!	!	!	!	!LO:TX:t=P:problem=kreska pseudotaktowa	!	!	!
.	.	.	.	2c\	-cti	2f\	.
*2\right	*	*	*	*	*	*	*
!	!	!	!	!	!	!LO:TX:t=P:problem=kreska pseudotaktowa	!
2.G\	.	2r	.	2.B-\	me-	1g	-i
.	.	1G/	qui	.	.	.	.
4F\	.	.	.	4A/	.	.	.
=10-	=10-	=10-	=10-	=10-	=10-	=10-	=10-
1E	.	.	.	4G/	.	1r	.
.	.	.	.	4F/	.	.	.
!	!	!LO:TX:t=P:problem=kreska pseudotaktowa	!	!	!	!	!
.	.	2G/	in	1G	.	.	.
!LO:TX:t=P:problem=kreska pseudotaktowa	!	!	!	!	!	!	!
1D	-i	2A/	car-	.	.	2r	.
!	!	!	!	!LO:TX:t=P:problem=kreska pseudotaktowa	!	!	!
.	.	2A/	-ne	2F/	.	1d\	qui
=11-	=11-	=11-	=11-	=11-	=11-	=11-	=11-
0r	.	2.B-\	po-	2.G/	.	.	.
!	!	!	!	!	!	!LO:TX:t=P:problem=kreska pseudotaktowa	!
.	.	.	.	.	.	2d\	in
!	!	!LO:TX:t=P:problem=kreska pseudotaktowa	!	!	!	!	!
.	.	4A/	.	4F/	.	.	.
*	*	*	*	*	*	*custos:e	*
*	*	*	*	*	*	*xywh-#62:1093,2951,6188,1004	*
!	!	!	!	!	!	!LO:LB:g=original	!
.	.	2G/	.	1E	.	2e\	car-
!	!	!	!	!	!	!LO:TX:t=P:problem=kreska pseudotaktowa	!
.	.	2G/	-si-	.	.	2e\	-ne
=12-	=12-	=12-	=12-	=12-	=12-	=12-	=12-
!	!	!	!LO:SIC:v:o=-ti	!LO:TX:t=P:problem=kreska pseudotaktowa	!	!	!
2r	.	2A/	-sti	1D	-i	2.f\	po-
!	!	!LO:TX:t=P:problem=kreska pseudotaktowa	!	!	!	!	!
1D	qui	2F/	in	.	.	.	.
.	.	.	.	.	.	4e\	.
*	*	*custos:A	*	*	*	*	*
*	*	*xywh-#225:1172,2412,6008,1023	*	*	*	*	*
!	!	!LO:LB:g=original	!	!LO:MO:mod=1r	!	!	!
.	.	2A/	car-	0r	.	4d\	.
.	.	.	.	.	.	4c/	.
!LO:TX:t=P:problem=kreska pseudotaktowa	!	!	!	!	!	!	!
2D/	in	2A/	-ne	.	.	1d\	.
=13-	=13-	=13-	=13-	=13-	=13-	=13-	=13-
!	!	!	!	!LO:MO:null:mod=0r	!	!	!
2E\	car-	2G/	po-	.	.	.	.
!	!	!	!	!	!	!LO:TX:t=P:problem=kreska pseudotaktowa	!
2E\	-ne	2G/	-ſi-	.	.	2c/	-si-
!	!	!LO:TX:t=P:problem=kreska pseudotaktowa	!	!LO:TX:t=P:problem=kreska pseudotaktowa	!	!	!
!	!	!	!LO:SIC:v:o=-ti	!LO:MO:mod=.	!	!	!LO:SIC:v:o=-ti
2.F\	po-	1D	-sti	1r	.	2d\	-sti
*	*	*	*	*	*	*	*ij
.	.	.	.	.	.	1f\	qui
8E\L	.	.	.	.	.	.	.
!LO:TX:t=P:problem=kreska pseudotaktowa	!	!	!	!	!	!	!
8D\J	.	.	.	.	.	.	.
=14-	=14-	=14-	=14-	=14-	=14-	=14-	=14-
1.C	.	1r	.	2r	.	.	.
.	.	.	.	1G	qui	4e\	.
!	!	!	!	!	!	!LO:TX:t=P:problem=kreska pseudotaktowa	!
.	.	.	.	.	.	4d\	.
.	.	2r	.	.	.	2e\	.
!	!	!	!	!LO:TX:t=P:problem=kreska pseudotaktowa	!	!	!
2BB-/	.	1G/	qui	2G/	in	2d\	in
=15-	=15-	=15-	=15-	=15-	=15-	=15-	=15-
2.AA/	.	.	.	2A/	car-	2.c/	car-
!	!	!LO:TX:t=P:problem=kreska pseudotaktowa	!	!LO:TX:t=P:problem=kreska pseudotaktowa	!	!	!
.	.	2F/	in	2A/	-ne	.	.
!	!	!	!	!	!	!LO:TX:t=P:problem=kreska pseudotaktowa	!
4AA/	-si-	.	.	.	.	4d\	.
*	*	*	*	*custos:B	*	*	*
*	*	*	*	*xywh-#148:1397,3698,5988,1094	*	*	*
!LO:TX:t=P:problem=kreska pseudotaktowa	!LO:SIC:v:o=-ti	!	!	!LO:LB:g=original	!	!	!
1GG	-sti	2.G/	car-	2.B-\	po-	2e\	.
.	.	.	.	.	.	2d\	-ne
!	!	!	!	!LO:TX:t=P:problem=kreska pseudotaktowa	!	!	!
.	.	4D/	-ne	4A/	.	.	.
=16-	=16-	=16-	=16-	=16-	=16-	=16-	=16-
1r	.	2.E-X/	po-	4G/	.	4c/	po-
.	.	.	.	4F/	.	4B-/	.
.	.	.	.	1G	.	4A/	.
!	!	!LO:TX:t=P:problem=kreska pseudotaktowa	!	!	!	!LO:TX:t=P:problem=kreska pseudotaktowa	!
.	.	4E-/	-ſi-	.	.	4G/	.
!	!	!	!LO:SIC:v:o=-ti	!	!	!	!
2r	.	2D/	-sti	.	.	2.A/	.
!LO:TX:t=P:problem=kreska pseudotaktowa	!	!	!	!LO:TX:t=P:problem=kreska pseudotaktowa	!	!	!
2D/	cer-	2d\	cer-	2F/	-si-	.	.
.	.	.	.	.	.	4A/	-si-
=17-	=17-	=17-	=17-	=17-	=17-	=17-	=17-
!	!	!	!	!	!LO:SIC:v:o=-ti	!LO:TX:t=P:problem=kreska pseudotaktowa	!LO:SIC:v:o=-ti
2E-X\	-ta-	2B-\	-ta-	1G	-sti	1G	-sti
*	*	*	*	*	*	*	*Xij
!LO:TX:t=P:problem=kreska pseudotaktowa	!	!LO:TX:t=P:problem=kreska pseudotaktowa	!LO:MO:mod=-men	!	!	!	!
2C/	-men	2c\	-m(en)	.	.	.	.
2D/	ha-	2A/	ha-	2r	.	0r	.
!	!	!	!	!LO:TX:t=P:problem=kreska pseudotaktowa	!	!	!
2BB-/	-bu-	2B-\	-bu-	2d\	cer-	.	.
=18-	=18-	=18-	=18-	=18-	=18-	=18-	=18-
1C	-i-	1G	-i-	2e-X\	-ta-	.	.
!	!	!	!	!	!LO:MO:mod=-men	!	!
.	.	.	.	2c\	-m(en)	.	.
!LO:TX:t=P:problem=kreska pseudotaktowa	!	!LO:TX:t=P:problem=kreska pseudotaktowa	!	!	!	!	!
1GG	-ſtis	1G	-ſtis	2d\	ha-	2r	.
!	!	!	!	!LO:TX:t=P:problem=kreska pseudotaktowa	!	!LO:TX:t=P:problem=kreska pseudotaktowa	!
.	.	.	.	2B-\	-bu-	2d\	cer-
=19-	=19-	=19-	=19-	=19-	=19-	=19-	=19-
0r	.	2r	.	1c	-i-	2e-X\	-ta-
!	!	!	!	!	!	!LO:TX:t=P:problem=kreska pseudotaktowa	!LO:MO:mod=-men
.	.	2A/	cer-	.	.	2c/	-m(en)
.	.	2B-\	-ta-	2G/	-ſtis	2d\	ha-
*	*	*	*	*	*ij	*	*
!	!	!LO:TX:t=P:problem=kreska pseudotaktowa	!LO:MO:mod=-men	!LO:TX:t=P:problem=kreska pseudotaktowa	!	!	!
.	.	2G/	-m(en)	2d\	cer-	2B-/	-bu-
=20-	=20-	=20-	=20-	=20-	=20-	=20-	=20-
!LO:TX:t=P:problem=kreska pseudotaktowa	!	!	!	!	!	!LO:TX:t=P:problem=kreska pseudotaktowa	!
1r	.	2A/	ha-	2c\	-ta-	1c	-i-
!	!	!	!	!	!LO:MO:mod=-men	!	!
.	.	2F/	-bu-	2A/	-m(en)	.	.
2r	.	1G	-i-	2.B-\	ha-	2G/	-ſtis
*	*ij	*	*	*	*	*	*ij
!LO:TX:t=P:problem=kreska pseudotaktowa	!	!	!	!	!	!	!
2G\	cer-	.	.	.	.	2g\	cer-
!	!	!	!	!LO:TX:t=P:problem=kreska pseudotaktowa	!	!	!
.	.	.	.	4c\	.	.	.
*	*	*	*	*	*	*custos:f	*
!	!	!	!	!	!	!LO:LB:g=original	!
=21-	=21-	=21-	=21-	=21-	=21-	=21-	=21-
*	*	*	*	*	*	*xywh-#62:1103,3664,6078,904	*
!	!	!LO:TX:t=P:problem=kreska pseudotaktowa	!	!	!	!	!
2A\	-ta-	1D	-ſtis	2d\	.	2f\	-ta-
!	!	!	!	!	!	!	!LO:MO:mod=-men
2F\	-men	.	.	2A/	-bu-	1d	-m(en)
2G\	ha-	2r	.	2B-\	-i-	.	.
*	*	*	*ij	*	*	*	*
!LO:TX:t=P:problem=kreska pseudotaktowa	!	!	!	!LO:TX:t=P:problem=kreska pseudotaktowa, między nutą a kropką	!	!LO:TX:t=P:problem=kreska pseudotaktowa	!
2Eny\	-bu-	2G/	cer-	2.c\	.	2eny\	ha-
=22-	=22-	=22-	=22-	=22-	=22-	=22-	=22-
!LO:TX:t=P:problem=kreska pseudotaktowa	!	!	!	!	!	!	!
1F	-i-	2.A/	-ta-	.	.	2c/	-bu-
.	.	.	.	4B-\	.	.	.
.	.	.	.	2A/	.	1f	-i-
.	.	4B-\	.	.	.	.	.
*custos:C	*	*	*	*	*	*	*
*xywh-#312:1170,2315,6191,1081	*	*	*	*	*	*	*
!LO:TX:t=P:problem=kreska pseudotaktowa	!	!	!	!	!	!	!
!LO:LB:g=original	!	!	!	!	!	!	!
1C	-ſtis	2c\	.	2G/	-ſtis	.	.
*	*	*	*	*	*Xij	*	*
!	!	!LO:TX:t=P:problem=kreska pseudotaktowa	!LO:MO:mod=-men	!	!LO:MO:mod=cer-	!	!
.	.	2c\	-m(en)	1A\	Cer-	2e\	.
*	*	*custos:F	*	*	*	*	*
!	!	!LO:LB:g=original	!	!	!	!	!
=23-	=23-	=23-	=23-	=23-	=23-	=23-	=23-
*	*	*xywh-#225:1221,2998,5983,1081	*	*	*	*	*
!	!	!	!	!	!	!LO:TX:t=P:problem=kreska pseudotaktowa	!
2r	.	1F	ha-	.	.	1f	-ſtis
*	*	*	*	*	*	*	*Xij
2D/	cer-	.	.	1B-	-ta-	.	.
2E-X\	-ta-	2G/	-bu-	.	.	1r	.
*	*	*lig	*	*	*	*	*
!LO:TX:t=P:problem=kreska pseudotaktowa	!	!	!	!LO:TX:t=P:problem=kreska pseudotaktowa	!LO:MO:mod=-men	!	!
2C/	-men	1A\	-i-	2c\	-m(en)	.	.
=24-	=24-	=24-	=24-	=24-	=24-	=24-	=24-
2D/	ha-	.	.	2A/	ha-	2r	.
*	*	*col	*	*	*	*	*
2BB-/	-bu-	2.G/	.	2B-\	-bu-	2d\	cer-
!	!	!	!	!LO:TX:t=P:problem=kreska pseudotaktowa	!	!LO:SIC:v:o=2e\	!
1C	-i-	.	.	1G	-i-	2e-i	-ta-
*	*	*Xlig	*	*	*	*	*
.	.	4F/	.	.	.	.	.
*	*	*Xcol	*	*	*	*	*
!	!	!LO:SIC:v:o=2Eny/	!	!	!	!	!
!	!	!LO:TX:t=P:problem=kreska pseudotaktowa	!	!	!	!LO:TX:t=P:problem=kreska pseudotaktowa	!LO:MO:mod=-men
.	.	2E-i	.	.	.	2c/	-m(en)
=25-	=25-	=25-	=25-	=25-	=25-	=25-	=25-
2GG,</	-ſtis	2D/	-ſtis	2G/	-ſtis	2d\	ha-
*	*	*	*Xij	*custos:d	*ij	*	*
*	*	*	*	*xywh-#148:7351,496,6348,1106	*	*	*
!LO:TX:t=P:problem=kreska pseudotaktowa	!	!	!	!LO:PB:g=original	!LO:MO:mod=cer-	!	!
2GG/	cer-	4r	.	2d\	Cer-	2B-/	-bu-
!	!	!LO:TX:t=P:problem=kreska pseudotaktowa	!	!	!	!	!
.	.	4G/	cer-	.	.	.	.
2C/	-ta-	2G/	-ta-	2e-X\	-ta-	1c	-i-
!	!	!LO:TX:t=P:problem=kreska pseudotaktowa	!LO:MO:mod=-men	!LO:TX:t=P:problem=kreska pseudotaktowa	!LO:MO:mod=-men	!	!
2AA/	-men	2F/	-m(en)	2c\	-m(en)	.	.
=26-	=26-	=26-	=26-	=26-	=26-	=26-	=26-
!	!	!	!	!	!	!LO:TX:t=P:problem=kreska pseudotaktowa	!
2BB-/	ha-	2D/	ha-	2d\	ha-	1G	-ſtis
!LO:TX:t=P:problem=kreska pseudotaktowa	!	!	!	!	!	!	!
2GG/	-bu-	2D/	-bu-	2B-\	-bu-	.	.
2.AA/	-i-	2.C/	-i-	1c	-i-	2r	.
*	*	*	*	*	*	*	*ij
.	.	.	.	.	.	2c/	cer-
!	!	!LO:SIC:v:o=4C/	!	!	!	!	!
4BB-/	.	4D	.	.	.	.	.
=27-	=27-	=27-	=27-	=27-	=27-	=27-	=27-
!	!	!LO:TX:t=P:problem=kreska pseudotaktowa	!	!LO:TX:t=P:problem=kreska pseudotaktowa	!	!	!
1C	.	1E-X	.	1G	-ſtis	2c/	-ta-
!	!	!	!	!	!	!LO:TX:t=P:problem=kreska pseudotaktowa	!LO:MO:mod=-men
.	.	.	.	.	.	2G/	-m(en)
!LO:TX:t=P:problem=kreska pseudotaktowa	!	!	!	!	!	!	!
1GG	-ſtis	2D/	-ſtis	2r	.	2B-/	ha-
*	*Xij	*	*ij	*	*	*	*
!	!	!	!	!	!LO:MO:mod=cer-	!	!
.	.	2G/	cer-	2d\	Cer-	2B-/	-bu-
=28-	=28-	=28-	=28-	=28-	=28-	=28-	=28-
!	!	!	!	!LO:TX:t=P:problem=kreska pseudotaktowa	!	!LO:TX:t=P:problem=kreska pseudotaktowa	!
2r	.	2G/	-ta-	1d	-ta-	1A	-i-
!	!	!LO:TX:t=P:problem=kreska pseudotaktowa	!LO:MO:mod=-men	!	!	!	!
2D/	cer-	2F/	-m(en)	.	.	.	.
!	!	!	!	!	!LO:MO:mod=-men	!	!
2E-X\	-ta-	2G/	ha-	2B-\	-m(en)	2G/	-ſtis
!LO:TX:t=P:problem=kreska pseudotaktowa	!	!	!	!LO:SIC:v:o=2eny\	!	!	!
2C/	-men	2c\	-bu-	2e-	ha-	2g\	cer-
=29-	=29-	=29-	=29-	=29-	=29-	=29-	=29-
!	!	!	!	!LO:TX:t=P:problem=kreska pseudotaktowa	!	!	!
2D/	ha-	4A/	-i-	1d	-bu-	2f\	-ta-
.	.	8G/L	.	.	.	.	.
.	.	8A/J	.	.	.	.	.
!	!	!	!	!	!	!LO:TX:t=P:problem=kreska pseudotaktowa	!LO:MO:mod=-men
2BB-/	-bu-	4B-\	.	.	.	2d\	-m(en)
!	!	!LO:TX:t=P:problem=kreska pseudotaktowa	!	!	!	!	!
.	.	4A/	.	.	.	.	.
*lig	*	*	*	*	*	*	*
1C	-i-	4G/	.	2.c\	-i-	2e-X\	ha-
.	.	4F/	.	.	.	.	.
.	.	1G/	.	.	.	2e-\	-bu-
.	.	.	.	4B-\	.	.	.
=30-	=30-	=30-	=30-	=30-	=30-	=30-	=30-
!	!	!	!	!LO:TX:t=P:problem=kreska pseudotaktowa	!	!	!
1D	.	.	.	1A	.	2.d\	-i-
!	!	!LO:SIC:v:o=2F/	!	!	!	!	!
.	.	2F#i	.	.	.	.	.
.	.	.	.	.	.	4c/	.
*Xlig	*	*	*	*	*	*	*
!LO:TX:t=P:problem=kreska pseudotaktowa	!	!LO:TX:t=P:problem=kreska pseudotaktowa	!	!	!	!	!
0GG	-ſtis	1G	-ſtis	2G/	-ſtis	4B-/	.
*	*	*	*Xij	*	*Xij	*	*
.	.	.	.	.	.	4A/	.
!	!	!	!	!	!	!LO:TX:t=P:problem=kreska pseudotaktowa	!
.	.	.	.	2G/	mer-	2B-/	.
*	*	*	*	*	*	*custos:G	*
!	!	!	!	!	!	!LO:PB:g=original	!
=31-	=31-	=31-	=31-	=31-	=31-	=31-	=31-
*	*	*	*	*	*	*xywh-#62:7294,495,6289,1004	*
!	!	!	!	!	!	!LO:TX:t=P:problem=kreska pseudotaktowa	!
.	.	2r	.	1d	-ce-	1G	-ſtis
*	*	*	*	*	*	*	*Xij
!	!	!	!LO:MO:mod=mer-	!	!	!	!
.	.	2D/	Mer-	.	.	.	.
!	!	!LO:TX:t=P:problem=kreska pseudotaktowa	!	!	!	!	!
2r	.	1G	-ce-	2B-\	-dem	0r	.
!	!	!	!	!LO:TX:t=P:problem=kreska pseudotaktowa	!	!	!
2GG/	mer-	.	.	2G/	la-	.	.
=32-	=32-	=32-	=32-	=32-	=32-	=32-	=32-
!LO:TX:t=P:problem=kreska pseudotaktowa	!	!	!LO:MO:mod=-dem	!	!	!	!
1D	-ce-	2F/	-d(em)	2.A/	-bo-	.	.
!	!	!LO:TX:t=P:problem=kreska pseudotaktowa	!	!	!	!	!
.	.	2D/	la-	.	.	.	.
.	.	.	.	8G/L	.	.	.
!	!	!	!	!LO:TX:t=P:problem=kreska pseudotaktowa	!	!	!
.	.	.	.	8F/J	.	.	.
*	*	*custos:E	*	*	*	*	*
*	*	*xywh-#225:1081,3634,6157,1138	*	*	*	*	*
!	!LO:MO:mod=-dem	!LO:LB:g=original	!	!	!	!	!
2C/	-d(em)	1Eny	-bo-	2G/	.	2r	.
!LO:TX:t=P:problem=kreska pseudotaktowa	!	!	!	!	!	!LO:TX:t=P:problem=kreska pseudotaktowa	!
2AA/	la-	.	.	1A\	.	2A/	mer-
*custos:BB	*	*	*	*	*	*	*
!LO:LB:g=original	!	!	!	!	!	!	!
=33-	=33-	=33-	=33-	=33-	=33-	=33-	=33-
*xywh-#312:1220,2990,6111,1041	*	*	*	*	*	*	*
!	!	!LO:TX:t=P:problem=kreska pseudotaktowa	!	!	!	!	!
1BB-	-bo-	1D	-ris	.	.	1d	-ce-
.	.	.	.	2G/	.	.	.
!	!	!	!	!LO:TX:t=P:problem=kreska pseudotaktowa	!	!	!
2AA/	-ris	1r	.	1A	-ris	2c/	-dem
*	*ij	*	*	*	*	*	*
!LO:TX:t=P:problem=kreska pseudotaktowa	!	!	!	!	!	!LO:TX:t=P:problem=kreska pseudotaktowa	!
2D/	mer-	.	.	.	.	2A/	la-
=34-	=34-	=34-	=34-	=34-	=34-	=34-	=34-
1G	-ce-	2r	.	0r	.	1B-	-bo-
*	*	*	*ij	*	*	*	*
!	!	!LO:TX:t=P:problem=kreska pseudotaktowa	!LO:MO:mod=mer-	!	!	!	!
.	.	2G/	Mer-	.	.	.	.
!	!LO:MO:mod=-dem	!	!	!	!	!	!
2F\	-d(em)	1d	-ce-	.	.	2A/	-ris
*	*	*	*	*	*	*	*ij
!LO:TX:t=P:problem=kreska pseudotaktowa	!	!	!	!	!	!LO:TX:t=P:problem=kreska pseudotaktowa	!
2D/	la-	.	.	.	.	2d\	mer-
=35-	=35-	=35-	=35-	=35-	=35-	=35-	=35-
!	!	!	!LO:MO:mod=-dem	!	!	!	!
1E-X	-bo-	2B-\	-d(em)	2r	.	1g	-ce-
*	*	*	*	*	*ij	*	*
!	!	!LO:TX:t=P:problem=kreska pseudotaktowa	!	!LO:TX:t=P:problem=kreska pseudotaktowa	!	!	!
.	.	2c\	la-	2G/	mer-	.	.
!LO:TX:t=P:problem=kreska pseudotaktowa	!	!	!	!	!	!	!
1D	-ris	2A/	-bo-	1d	-ce-	2f\	-dem
!	!	!	!	!	!	!LO:TX:t=P:problem=kreska pseudotaktowa	!
.	.	2B-\	.	.	.	2d\	la-
=36-	=36-	=36-	=36-	=36-	=36-	=36-	=36-
*	*	*	*	*	*	*lig	*
!	!	!LO:TX:t=P:problem=kreska pseudotaktowa	!	!	!	!	!
1r	.	1A	-ris	2c\	-dem	1e-X	-bo-
!	!	!	!	!LO:TX:t=P:problem=kreska pseudotaktowa	!	!	!
.	.	.	.	2A/	la-	.	.
*	*	*	*	*	*	*col	*
2r	.	1r	.	1B-	-bo-	2.d\	.
2GG/	mer-	.	.	.	.	.	.
*	*	*	*	*	*	*Xlig	*
.	.	.	.	.	.	4eny\	.
*	*	*	*	*	*	*Xcol	*
=37-	=37-	=37-	=37-	=37-	=37-	=37-	=37-
!LO:TX:t=P:problem=kreska pseudotaktowa	!	!	!	!LO:TX:t=P:problem=kreska pseudotaktowa	!	!	!
1D	-ce-	2r	.	1A	-ris	1f	.
!	!	!LO:TX:t=P:problem=kreska pseudotaktowa	!LO:MO:mod=mer-	!	!	!	!
.	.	2D/	Mer-	.	.	.	.
*	*	*	*	*custos:A	*	*	*
*	*	*	*	*xywh-#148:7375,1205,6156,949	*	*	*
!	!LO:MO:mod=-dem	!	!	!LO:LB:g=original	!	!LO:TX:t=P:problem=kreska pseudotaktowa	!
2C/	-d(em)	1A	-ce-	2r	.	1e	-ris
*	*	*	*	*	*	*	*Xij
!	!	!	!	!LO:TX:t=P:problem=kreska pseudotaktowa	!	!	!
2AA/	la-	.	.	2A/	mer-	.	.
=38-	=38-	=38-	=38-	=38-	=38-	=38-	=38-
!	!	!	!LO:MO:mod=-dem	!	!	!	!
1BB-	-bo-	2F/	-d(em)	1d	-ce-	1r	.
!	!	!LO:TX:t=P:problem=kreska pseudotaktowa	!	!	!	!	!
.	.	2D/	la-	.	.	.	.
!LO:TX:t=P:problem=kreska pseudotaktowa	!	!	!	!	!	!	!
1AA	-ris	1E	-bo-	2c\	-dem	2r	.
!	!	!	!	!LO:TX:t=P:problem=kreska pseudotaktowa	!	!LO:TX:t=P:problem=kreska pseudotaktowa	!
.	.	.	.	2A/	la-	2c/	mer-
=39-	=39-	=39-	=39-	=39-	=39-	=39-	=39-
2r	.	2D/	-ris	1B-	-bo-	1d	-ce-
!	!	!	!LO:MO:mod=mer-	!	!	!	!
2GG/	mer-	1G	Mer-	.	.	.	.
!LO:TX:t=P:problem=kreska pseudotaktowa	!	!	!	!	!	!	!LO:MO:mod=-dem
1C	-ce-	.	.	2G/	-ris	2c/	-d(em)
*	*	*	*	*	*Xij	*	*
!	!	!LO:TX:t=P:problem=kreska pseudotaktowa	!	!LO:TX:t=P:problem=kreska pseudotaktowa	!	!LO:TX:t=P:problem=kreska pseudotaktowa	!
.	.	2E/	-ce-	2G/	mer-	2c/	la-
=40-	=40-	=40-	=40-	=40-	=40-	=40-	=40-
!	!LO:MO:mod=-dem	!	!LO:MO:mod=-dem	!	!	!	!
2BB-/	-d(em)	2F/	-d(em)	1B-	-ce-	2.d\	-bo-
2GG/	la-	2G/	la-	.	.	.	.
.	.	.	.	.	.	4eny\	.
*lig	*	*lig	*	*	*	*	*
1D	-bo-	1F	-bo-	2A/	-dem	2f\	.
.	.	.	.	2.B-\	la-	1d\	.
=41-	=41-	=41-	=41-	=41-	=41-	=41-	=41-
1Eny	.	1G	.	.	.	.	.
.	.	.	.	4A/	.	.	.
!	!	!	!	!	!	!LO:SIC:v:o=2c/	!
!	!	!	!	!	!	!LO:TX:t=P:problem=kreska pseudotaktowa	!
.	.	.	.	1G	-bo-	2c#i	.
*Xlig	*	*Xlig	*	*	*	*	*
!LO:TX:t=P:problem=kreska pseudotaktowa	!	!LO:TX:t=P:problem=kreska pseudotaktowa	!	!	!	!	!
1D	-ris	1A	-ris	.	.	0d,<	-ris
*	*Xij	*	*Xij	*	*	*	*
!	!	!	!	!LO:TX:t=P:problem=kreska pseudotaktowa	!	!	!
.	.	.	.	2F/	.	.	.
=42-	=42-	=42-	=42-	=42-	=42-	=42-	=42-
!	!	!LO:N:acc=#	!	!	!	!	!
0GG	e-	1.Bn	e-	1G	-ris	.	.
.	.	.	.	1d	e-	0g	e-
.	.	2B\	-go	.	.	.	.
=43-	=43-	=43-	=43-	=43-	=43-	=43-	=43-
*lig	*	*	*	*	*	*	*
!	!	!LO:TX:t=P:problem=kreska pseudotaktowa	!	!LO:TX:t=P:problem=kreska pseudotaktowa	!	!	!
1C	-go	1c	red-	1e	-go	.	.
!LO:TX:t=P:problem=kreska pseudotaktowa	!	!	!LO:MO:mod=-dam	!	!	!LO:TX:t=P:problem=kreska pseudotaktowa	!
1D	.	2A/	-d(am)	2.d\	red-	1f	-go
!	!	!	!LO:MO:mod=vo-	!	!	!	!
.	.	2.B-y\	Vo-	.	.	.	.
.	.	.	.	4c\	.	.	.
*Xlig	*	*	*	*	*	*	*
=44-	=44-	=44-	=44-	=44-	=44-	=44-	=44-
1E-X	red-	.	.	1B-	.	1.e-X	red-
.	.	4A/	.	.	.	.	.
.	.	4G/	.	.	.	.	.
!	!	!LO:TX:t=P:problem=kreska pseudotaktowa	!	!	!	!	!
.	.	4F/	.	.	.	.	.
*	*	*custos:G	*	*	*	*	*
*	*	*xywh-#225:7309,565,5926,940	*	*	*	*	*
!LO:TX:t=P:problem=kreska pseudotaktowa	!LO:MO:mod=-dam	!LO:PB:g=original	!	!	!	!LO:TX:t=P:problem=kreska pseudotaktowa	!
1C	-d(am)	2G/	.	1c	-dam	.	.
!	!	!	!	!	!	!LO:TX:t=P:problem=kreska pseudotaktowa	!
.	.	2.A/	.	.	.	2e-\	-dam
*	*	*	*	*	*	*custos:d	*
!	!	!	!	!	!	!LO:LB:g=original	!
=45-	=45-	=45-	=45-	=45-	=45-	=45-	=45-
*	*	*	*	*	*	*xywh-#62:7283,1148,6178,944	*
!	!LO:MO:mod=vo-	!	!	!	!LO:MO:mod=vo-	!	!LO:MO:mod=vo-
0D	Vo-	.	.	2B-\	Vo-	0d	Vo-
.	.	4G/	.	.	.	.	.
.	.	1G	.	4A/	.	.	.
.	.	.	.	4G/	.	.	.
.	.	.	.	1A	.	.	.
!	!	!LO:SIC:v:o=2F/	!	!	!	!	!
.	.	2F#i	.	.	.	.	.
=46-	=46-	=46-	=46-	=46-	=46-	=46-	=46-
!	!	!	!	!LO:TX:t=P:problem=kreska pseudotaktowa	!	!	!
!LO:TX:t=P:problem=kreska pseudotaktowa	!	!LO:TX:t=P:problem=kreska pseudotaktowa	!	!LO:N:acc=#	!	!LO:TX:t=P:problem=kreska pseudotaktowa	!
0GG	-bis	0G	-bis	0Bn	-bis	0d	-bis
*custos:C	*	*	*	*	*	*	*
!LO:LB:g=original	!	!	!	!	!	!	!
=47-	=47-	=47-	=47-	=47-	=47-	=47-	=47-
*xywh-#312:1101,3585,6250,1240	*	*	*	*	*	*	*
1r	.	1r	.	1r	.	1r	.
!	!LO:MO:mod=ve-	!	!LO:MO:mod=ve-	!	!LO:MO:mod=ve-	!	!LO:MO:mod=ve-
0C	Ve-	0G	Ve-	0c	Ve-	0eny	Ve-
=48-	=48-	=48-	=48-	=48-	=48-	=48-	=48-
.	.	.	.	.	.	.	.
!LO:TX:t=P:problem=kreska pseudotaktowa	!	!LO:TX:t=P:problem=kreska pseudotaktowa	!	!LO:TX:t=P:problem=kreska pseudotaktowa	!	!	!
1D	-ni-	1F	-ni-	1A	-ni-	1f	-ni-
=49-	=49-	=49-	=49-	=49-	=49-	=49-	=49-
!	!	!LO:TX:t=P:problem=kreska pseudotaktowa	!	!	!	!LO:TX:t=P:problem=kreska pseudotaktowa	!
1C	-te	1G	-te	1c	-te	1e	-te
1.F	be-	1.A	be-	2c\	be-	1.c	be-
.	.	.	.	2A/	-ne-	.	.
=50-	=50-	=50-	=50-	=50-	=50-	=50-	=50-
!	!	!	!	!	!LO:MO:null:mod=-di-	!	!
.	.	.	.	2F/	.	.	.
!	!	!	!	!	!LO:MO:mod=.	!	!
2Eny\	-ne-	2G/	-ne-	1c	-di-	2c/	-ne-
!	!	!LO:TX:t=P:problem=kreska pseudotaktowa	!	!	!	!	!
1D	-di-	1F	-di-	.	.	1d	-di-
!	!	!	!	!LO:SIC:v:o=2B-y\	!	!	!
!	!	!	!	!LO:TX:t=P:problem=kreska pseudotaktowa	!	!	!
.	.	.	.	2Bi	.	.	.
=51-	=51-	=51-	=51-	=51-	=51-	=51-	=51-
!LO:TX:t=P:problem=kreska pseudotaktowa	!	!	!	!	!	!LO:TX:t=P:problem=kreska pseudotaktowa	!
1C	-cti	2G/	-cti	1c	-cti	1e	-cti
.	.	2.A/	Pa-	.	.	.	.
*	*	*	*	*custos:A	*	*	*
*	*	*	*	*xywh-#148:7393,1838,6332,901	*	*	*
!	!	!	!	!LO:LB:g=original	!	!	!LO:MO:mod=Pa-
1.D	Pa-	.	.	1.A	Pa-	2f\	pa-
.	.	4G/	.	.	.	.	.
!	!	!	!	!	!	!	!LO:MO:null:mod=-tris
.	.	4F/	.	.	.	2d\	.
!	!	!LO:TX:t=P:problem=kreska pseudotaktowa	!	!	!	!	!
.	.	4E/	.	.	.	.	.
=52-	=52-	=52-	=52-	=52-	=52-	=52-	=52-
!	!	!	!	!	!	!	!LO:MO:mod=me-
.	.	2D/	.	.	.	2f\	-tris
!	!	!	!	!LO:TX:t=P:problem=kreska pseudotaktowa	!	!	!LO:MO:mod=.
2AA/	-tris	2C/	-tris	2A/	-tris	2.e\	me-
*	*	*lig	*	*	*	*	*
1BB-	me-	1D	me-	2F/	me-	.	.
.	.	.	.	.	.	4d\	.
.	.	.	.	2G/	.	1d\	.
=53-	=53-	=53-	=53-	=53-	=53-	=53-	=53-
!LO:TX:t=P:problem=kreska pseudotaktowa	!LO:MO:mod=-i	!	!	!LO:TX:t=P:problem=kreska pseudotaktowa	!	!	!
1AA	-i,	1E	.	1A	-i	.	.
!	!	!	!	!	!	!LO:SIC:v:o=2c/	!
.	.	.	.	.	.	2c#i	.
*	*	*Xlig	*	*	*	*	*
!	!	!LO:TX:t=P:problem=kreska pseudotaktowa	!	!	!	!LO:TX:t=P:problem=kreska pseudotaktowa	!
2r	.	1D	-i	2r	.	1d	-i
2D/	per-	.	.	2F/	per-	.	.
=54-	=54-	=54-	=54-	=54-	=54-	=54-	=54-
2D/	-ci-	0r	.	2F/	-ci-	1r	.
!	!	!	!	!LO:TX:t=P:problem=kreska pseudotaktowa	!	!	!
2C/	-pi-	.	.	2G/	-pi-	.	.
!LO:TX:t=P:problem=kreska pseudotaktowa	!	!	!	!	!	!	!
1F	-te	.	.	1A	-te	2r	.
.	.	.	.	.	.	2d\	per-
=55-	=55-	=55-	=55-	=55-	=55-	=55-	=55-
1E	re-	2r	.	2.G/	re-	2d\	-ci-
!	!	!	!	!	!	!LO:TX:t=P:problem=kreska pseudotaktowa	!
.	.	2G/	per-	.	.	2c/	-pi-
!	!	!	!	!LO:TX:t=P:problem=kreska pseudotaktowa	!	!	!
.	.	.	.	4A/	.	.	.
!LO:TX:t=P:problem=kreska pseudotaktowa	!LO:MO:mod=-gnum	!	!	!	!	!	!
1D	-gn(um)	2F/	-ci-	4B-y\	.	1f	-te
.	.	.	.	4A/	.	.	.
!	!	!LO:TX:t=P:problem=kreska pseudotaktowa	!	!	!	!	!
.	.	2D/	-pi-	1d\	.	.	.
=56-	=56-	=56-	=56-	=56-	=56-	=56-	=56-
!	!	!	!	!	!	!LO:TX:t=P:problem=kreska pseudotaktowa	!
1r	.	1A	-te	.	.	1e	re-
!	!	!	!	!LO:TX:t=P:problem=kreska pseudotaktowa	!	!	!
.	.	.	.	2c\	.	.	.
!	!	!LO:TX:t=P:problem=kreska pseudotaktowa	!	!LO:TX:t=P:problem=kreska pseudotaktowa	!LO:MO:mod=-gnum	!	!LO:MO:mod=-gnum
2r	.	1B-	re-	1d	-gn(um)	2d\	-gn(um)
*	*ij	*	*	*	*	*	*ij
2GG/	per-	.	.	.	.	2g\	per-
=57-	=57-	=57-	=57-	=57-	=57-	=57-	=57-
!LO:TX:t=P:problem=kreska pseudotaktowa	!	!	!LO:MO:mod=-gnum	!	!	!	!
1D	-ci-	2A/	-gn(um)	2r	.	2f\	-ci-
*	*	*	*ij	*	*ij	*	*
!	!	!	!	!LO:TX:t=P:problem=kreska pseudotaktowa	!	!LO:TX:t=P:problem=kreska pseudotaktowa	!
.	.	2F/	per-	2A/	per-	2d\	-pi-
2C/	-pi-	2G/	-ci-	1c	-ci-	2e\	-te
!	!	!LO:TX:t=P:problem=kreska pseudotaktowa	!	!	!	!	!
2AA/	-te	2A/	-pi-	.	.	2.f\	re-
*	*	*custos:D	*	*	*	*	*
!	!	!LO:LB:g=original	!	!	!	!	!
=58-	=58-	=58-	=58-	=58-	=58-	=58-	=58-
*lig	*	*xywh-#225:7317,1152,6107,932	*	*	*	*	*
1BB-	re-	1D	-te	2F/	-pi-	.	.
.	.	.	.	.	.	4e\	.
*	*	*	*	*	*	*custos:d	*
*	*	*	*	*	*	*xywh-#62:7333,1761,6429,924	*
!	!	!	!	!LO:TX:t=P:problem=kreska pseudotaktowa	!	!LO:LB:g=original	!
.	.	.	.	2G/	-te	1d	.
1AA	.	1E	re-	1A	re-	.	.
!	!	!	!	!	!	!LO:SIC:v:o=2c/	!
.	.	.	.	.	.	2c#i	.
*Xlig	*	*	*	*	*	*	*
=59-	=59-	=59-	=59-	=59-	=59-	=59-	=59-
!LO:TX:t=P:problem=kreska pseudotaktowa	!LO:MO:mod=-gnum	!LO:TX:t=P:problem=kreska pseudotaktowa	!LO:MO:mod=-gnum	!	!LO:MO:mod=-gnum	!LO:TX:t=P:problem=kreska pseudotaktowa	!LO:MO:mod=-gnum
0D	-gn(um)	1D	-gn(um)	2A/	-gn(um)	1d	-gn(um)
*	*Xij	*	*Xij	*	*Xij	*	*Xij
!	!	!	!	!LO:TX:t=P:problem=kreska pseudotaktowa	!	!	!
.	.	.	.	2A/	mer-	.	.
!	!	!	!	!	!	!LO:MO:mod=1r	!
.	.	2r	.	1d	-ce-	0r	.
.	.	2D/	mer-	.	.	.	.
=60-	=60-	=60-	=60-	=60-	=60-	=60-	=60-
!	!	!	!	!	!	!LO:MO:null:mod=0r	!
2r	.	1G	-ce-	2B-\	-dem	.	.
!	!LO:MO:mod=mer-	!	!	!LO:TX:t=P:problem=kreska pseudotaktowa	!	!	!
2GG/	Mer-	.	.	2G/	la-	.	.
!LO:TX:t=P:problem=kreska pseudotaktowa	!	!	!	!	!	!LO:MO:mod=.	!
1D	-ce-	2F/	-dem	2.A/	-bo-	1r	.
!	!	!LO:TX:t=P:problem=kreska pseudotaktowa	!	!	!	!	!
.	.	2D/	la-	.	.	.	.
.	.	.	.	8G/L	.	.	.
!	!	!	!	!LO:TX:t=P:problem=kreska pseudotaktowa	!	!	!
.	.	.	.	8F/J	.	.	.
*custos:C	*	*	*	*	*	*	*
!LO:PB:g=original	!	!	!	!	!	!	!
=61-	=61-	=61-	=61-	=61-	=61-	=61-	=61-
*xywh-#312:7267,481,6290,1012	*	*	*	*	*	*	*
2C/	-dem	1E	-bo-	2G/	.	2r	.
!	!	!	!	!	!	!LO:TX:t=P:problem=kreska pseudotaktowa	!
2AA/	la-	.	.	1A	.	2A/	mer-
!LO:TX:t=P:problem=kreska pseudotaktowa	!	!LO:TX:t=P:problem=kreska pseudotaktowa	!	!	!	!	!
1BB-	-bo-	1D	-ris	.	.	1d	-ce-
!	!	!	!	!LO:TX:t=P:problem=kreska pseudotaktowa	!	!	!
.	.	.	.	2G/	.	.	.
=62-	=62-	=62-	=62-	=62-	=62-	=62-	=62-
!	!	!	!	!LO:TX:t=P:problem=kreska pseudotaktowa	!	!	!
2AA/	-ris	1r	.	1A	-ris	2c/	-dem
*	*ij	*	*	*	*	*	*
!	!LO:MO:mod=mer-	!	!	!	!	!	!
2D/	Mer-	.	.	.	.	2A/	la-
*	*	*	*	*custos:G	*	*	*
*	*	*	*	*xywh-#148:7423,2349,6553,1072	*	*	*
!	!	!	!	!LO:LB:g=original	!	!LO:TX:t=P:problem=kreska pseudotaktowa	!
1G	-ce-	2r	.	0r	.	1B-	-bo-
*	*	*	*ij	*	*	*	*
!	!	!LO:TX:t=P:problem=kreska pseudotaktowa	!	!	!	!	!
.	.	2G/	mer-	.	.	.	.
=63-	=63-	=63-	=63-	=63-	=63-	=63-	=63-
2F\	-dem	1d	-ce-	.	.	2A,</	-ris
*	*	*	*	*	*	*	*ij
!LO:TX:t=P:problem=kreska pseudotaktowa	!	!	!	!	!	!LO:TX:t=P:problem=kreska pseudotaktowa	!
2D/	la-	.	.	.	.	2d\	mer-
1E-X	-bo-	2B-\	-dem	2r	.	1g	-ce-
*	*	*	*	*	*ij	*	*
!	!	!LO:TX:t=P:problem=kreska pseudotaktowa	!	!LO:TX:t=P:problem=kreska pseudotaktowa	!	!	!
.	.	2c\	la-	2G/	mer-	.	.
=64-	=64-	=64-	=64-	=64-	=64-	=64-	=64-
!LO:TX:t=P:problem=kreska pseudotaktowa	!	!	!	!	!	!	!
1D	-ris	2A/	-bo-	1d	-ce-	2f\	-dem
.	.	2B-\	.	.	.	2d\	la-
*	*	*	*	*	*	*lig	*
!	!	!LO:TX:t=P:problem=kreska pseudotaktowa	!	!	!	!LO:SIC:v:o=1e	!
1r	.	1A	-ris	2c\	-dem	1e-i	-bo-
!	!	!	!	!LO:TX:t=P:problem=kreska pseudotaktowa	!	!	!
.	.	.	.	2A/	la-	.	.
=65-	=65-	=65-	=65-	=65-	=65-	=65-	=65-
*	*	*	*	*	*	*col	*
2r	.	1r	.	1B-	-bo-	2.d\	.
!	!LO:MO:mod=mer-	!	!	!	!	!	!
2GG/	Mer-	.	.	.	.	.	.
*	*	*	*	*	*	*Xlig	*
.	.	.	.	.	.	4e\	.
*	*	*	*	*	*	*Xcol	*
!LO:TX:t=P:problem=kreska pseudotaktowa	!	!	!	!LO:TX:t=P:problem=kreska pseudotaktowa	!	!	!
1D	-ce-	2r	.	1A	-ris	1f	.
.	.	2D/	mer-	.	.	.	.
=66-	=66-	=66-	=66-	=66-	=66-	=66-	=66-
!	!	!	!	!	!	!LO:TX:t=P:problem=kreska pseudotaktowa	!
2C/	-dem	1A	-ce-	2r	.	1e	-ris
*	*	*	*	*	*	*	*Xij
2AA/	la-	.	.	2A/	mer-	.	.
1BB-	-bo-	2F/	-dem	1d	-ce-	1r	.
.	.	2D/	la-	.	.	.	.
=67-	=67-	=67-	=67-	=67-	=67-	=67-	=67-
!LO:TX:t=P:problem=kreska pseudotaktowa	!	!LO:TX:t=P:problem=kreska pseudotaktowa	!	!	!	!	!
1AA	-ris	1E	-bo-	2c\	-dem	2r	.
*	*Xij	*	*	*	*	*	*
!	!	!	!	!LO:TX:t=P:problem=kreska pseudotaktowa	!	!LO:TX:t=P:problem=kreska pseudotaktowa	!
.	.	.	.	2A/	la-	2c/	mer-
2r	.	2D/	-ris	1B-	-bo-	1d	-ce-
!	!LO:MO:mod=mer-	!	!	!	!	!	!
2GG/	Mer-	1G/	mer-	.	.	.	.
=68-	=68-	=68-	=68-	=68-	=68-	=68-	=68-
1C	-ce-	.	.	2G,</	-ris	2c/	-dem
*	*	*	*	*	*Xij	*	*
!	!	!	!	!LO:TX:t=P:problem=kreska pseudotaktowa	!LO:MO:mod=mer-	!LO:TX:t=P:problem=kreska pseudotaktowa	!
.	.	2E/	-ce-	2G/	Mer-	2c/	la-
2BB-/	-dem	2F/	-dem	1B-	-ce-	2.d\	-bo-
!LO:TX:t=P:problem=kreska pseudotaktowa	!	!LO:TX:t=P:problem=kreska pseudotaktowa	!	!	!	!	!
2GG/	la-	2G/	la-	.	.	.	.
.	.	.	.	.	.	4e\	.
=69-	=69-	=69-	=69-	=69-	=69-	=69-	=69-
*lig	*	*lig	*	*	*	*	*
1D	-bo-	1F	-bo-	2A/	-dem	2f\	.
.	.	.	.	2.B-\	la-	1d	.
1Eny	.	1G	.	.	.	.	.
.	.	.	.	4A/	.	.	.
!	!	!	!	!	!	!LO:SIC:v:o=2c/	!
!	!	!	!	!	!LO:MO:null:mod=-bo-	!LO:TX:t=P:problem=kreska pseudotaktowa	!
.	.	.	.	1G/	.	2c#i	.
*Xlig	*	*Xlig	*	*	*	*	*
=70-	=70-	=70-	=70-	=70-	=70-	=70-	=70-
!	!LO:MO:null:mod=-ris	!LO:TX:t=P:problem=kreska pseudotaktowa	!	!	!	!	!
1D	.	1A	-ris	.	.	0d	-ris
*	*	*	*Xij	*	*	*	*
!	!	!	!	!LO:TX:t=P:problem=kreska pseudotaktowa	!	!	!
.	.	.	.	2F/	.	.	.
!LO:TX:t=P:problem=kreska pseudotaktowa	!LO:MO:mod=e-	!LO:N:acc=#	!	!LO:TX:t=P:problem=kreska pseudotaktowa	!LO:MO:mod=-ris	!	!
1GG	-ris	1Bn	e-	1G	-bo-	.	.
=71-	=71-	=71-	=71-	=71-	=71-	=71-	=71-
*lig	*	*	*	*	*	*	*
!	!LO:MO:mod=-go	!LO:TX:t=P:problem=kreska pseudotaktowa	!	!	!LO:MO:mod=e-	!LO:TX:t=P:problem=kreska pseudotaktowa	!
1C	e-	1c	-go	1G	-ris	1e	e-
!	!	!	!	!LO:TX:t=P:problem=kreska pseudotaktowa	!LO:MO:mod=-go	!	!
1D	.	1A	red-	1d	e-	1f	-go
*Xlig	*	*	*	*	*	*	*
=72-	=72-	=72-	=72-	=72-	=72-	=72-	=72-
!LO:TX:t=P:problem=kreska pseudotaktowa	!LO:MO:mod=red-	!	!LO:MO:null:mod=-dam	!	!LO:MO:mod=red-	!	!
1E-X	-go	2.G/	.	1B-	-go	1.e-X	red-
.	.	4F/	.	.	.	.	.
*	*	*custos:G	*	*	*	*	*
*	*	*xywh-#225:7267,1804,6033,907	*	*	*	*	*
!LO:TX:t=P:problem=kreska pseudotaktowa	!LO:MO:mod=-dam	!LO:LB:g=original	!	!LO:TX:t=P:problem=kreska pseudotaktowa	!LO:MO:mod=-dam	!	!
1C	red-	2G/	.	1c	red-	.	.
!	!	!	!LO:MO:mod=vo-	!	!	!LO:TX:t=P:problem=kreska pseudotaktowa	!LO:MO:mod=-dam
.	.	2.A/	-dam	.	.	2e-\	-d(am)
=73-	=73-	=73-	=73-	=73-	=73-	=73-	=73-
!	!	!	!	!	!	!LO:SIC:o=0d	!
!LO:SIC:o=0D	!LO:MO:mod=vo-	!	!	!	!LO:MO:mod=vo-	!LO:TX:t=P:problem=takt wykreślony	!LO:MO:mod=vo-
[0D	-d(am)	.	.	2B-\	-d(am)	[0d	Vo-
.	.	4G/	.	.	.	.	.
!	!	!	!LO:MO:mod=.	!	!	!	!
.	.	1G	Vo-	4A/	.	.	.
!	!	!	!	!LO:TX:t=P:problem=kreska pseudotaktowa	!	!	!
.	.	.	.	4G/	.	.	.
!	!	!	!	!LO:TX:t=P:problem=takt wykreślony	!LO:MO:mod=.	!	!
.	.	.	.	1A	Vo-	.	.
!	!	!LO:TX:t=P:problem=takt wykreślony	!	!	!	!	!
.	.	2F#X/	.	.	.	.	.
=74-	=74-	=74-	=74-	=74-	=74-	=74-	=74-
!LO:N:vis=0	!	!	!	!	!	!	!
!LO:TX:t=P:problem=♭ above	!	!	!	!	!	!	!
!LO:MO:mod=0D]	!LO:MO:mod=.	!	!	!	!	!LO:SIC:o=0d	!
1E-X;;	Vo-	2F#X/	.	2A\	.	0d]	.
.	.	1G	.	2B-X\	.	.	.
!LO:N:vis=0	!	!	!	!	!	!	!
!LO:MO:mod=.	!	!	!	!	!	!	!
1D	.	.	.	1A	.	.	.
.	.	2F#/	.	.	.	.	.
=75-	=75-	=75-	=75-	=75-	=75-	=75-	=75-
!LO:SIC:o=0GGl	!	!	!	!	!	!	!
0GG;	-bis.	0Gl;	-bis.	0Bnl;	-bis.	0dl;	-bis.
==	==	==	==	==	==	==	==
*-	*-	*-	*-	*-	*-	*-	*-
!!!system-decoration: [*]
!!LO:MO:ori
!!!RDF**kern: l = terminal long
!!LO:MO:mod
!! !!!RDF**kern: i = editorial accidental
!!LO:MO:end
!!!filter-modern: shed -e "s/^(\d+[\/\\]right)/$1yy/I" | shed -e "s/LO:N:/LO:n:$1/L" | shed -k -e "s/,</$1/D" | shed -e "s/TX(.*):t=P:/tx$1:t=P:/LG" | shed -e "s/^custos:/Xcustos:/I" | sic -sq | modori -m | autostem -r | tie -s | humtr -p | shed -e "s/-//B"
!!!ENC: Andrzej Borzym
!!!END: 2021-03-03
!!!EED: Marta Lawrence
!!!EEV: 2021-03-18
!!!ENC-modern: Andrzej Kubiczek
!!!END-modern: 2023-07-29
!!!ENC-iiif: Bartosz Żurakowski
!!!END-iiif: 2022-09-18
